!!!OTL: Zhai mianhua
!!!ARE: Asia, China,ÿGansu, Zhenyuan
!! I, 133
!!!SCT: C1416
!!!YEM: Copyright 1995, estate of Helmut Schaffrath.
**kern
*ICvox
*Ivox
*M2/4
*k[f#]
*G:
{8.dd
16ee
8dd
8b
=1
8dd
16dd
16ee
4dd
=2
8cc
8a
16a
16b
16a
16g
=3
16a
16b
16f#
16e
4d}
=4
{8dd
8g
8a
8b
=5
8dd
8e
4d
=6
8g
16g
16e
8g
8a
=7
2d}
==
!!!AGN: Xiaodiao
!!!ONB: ESAC (Essen Associative Code) Database: HUANG
!!!AMT: simple duple
!!!AIN: vox
!!!EED: Helmut Schaffrath
!!!EEV: 1.0
*-
!!!OTL: Cai hua diao
!!!ARE: Asia, China,ÿHunan, Yuanling
!! I, 576
!!!SCT: C1479
!!!YEM: Copyright 1995, estate of Helmut Schaffrath.
**kern
*ICvox
*Ivox
*M2/4
*k[b-]
*F:
{8dd
16ff
16cc
8a
16a
16cc
=1
8dd
16ff
16cc
8a}
{16cc
16a
=2
8cc
8ff
8dd
8cc
=3
16dd
16cc
16a
16g
4a}
=4
{8cc
8ff
8dd
8cc
=5
16dd
16cc
16a
16g
8a}
{16a
16cc
=6
8dd
8ff
8dd
8cc
=7
16a
16cc
16a
16g
32f
16.g
32a
16.cc
=8
16g
16a
4.g}
=9
{8a
8g
8dd
16dd
16cc
=10
8cc
16a
16g
8cc
8cc
=11
8g
16a
16cc
16g
16a
16g
16f
=12
2d}
=13
{8a
8cc
8a
8cc
=14
16ff
8.dd}
{4ff
=15
8cc
16a
16g
32f
16.g
32a
16.cc
=16
16g
16a
4.g}
=17
{8a
8g
8dd
16dd
16cc
=18
8cc
16a
16g
8cc
8cc
=19
8g
8cc
16g
16a
16g
16f
=20
2d}
==
!!!AGN: Xiaodiao, Yinniusi diao. Changhua
!!!ONB: ESAC (Essen Associative Code) Database: HUANG
!!!AMT: simple duple
!!!AIN: vox
!!!EED: Helmut Schaffrath
!!!EEV: 1.0
*-
